X:224
T:Reel 224
M:4/4
K:Gmaj
L:1/8
G3B d2BA|BcBA BcBA|G3B d2BG|FADA FADA|G2GB d2Bd|efgd B2AB|G2BG ABcA|BdcA BGG2|d2Bd G2Bd|gfdB eAA2|G2Bd g2Bd| (3efg dc BGG2|G2Bd g2Bd|g2Bd eAAc|B2BG ABcA|Bdef gefg|
